src/skins/crisp_white/customer/images/zoom.svg

<svg width="43" height="43" xmlns="http://www.w3.org/2000/svg"><path d="M24.746 14.948h-8.302V6.646a.75.75 0 0 0-1.5 0v8.302H6.645a.75.75 0 1 0 0 1.5h8.299v8.302a.75.75 0 0 0 1.5 0v-8.302h8.302a.75.75 0 0 0 0-1.5zm17.496 26.506L27.165 26.377c2.613-2.805 4.227-6.553 4.227-10.679C31.392 7.042 24.35 0 15.694 0 7.04 0 0 7.042 0 15.698c0 8.654 7.04 15.697 15.694 15.697 3.99 0 7.626-1.509 10.398-3.97l15.09 15.09a.747.747 0 0 0 1.06 0 .75.75 0 0 0 0-1.061zM15.694 29.895c-7.826 0-14.194-6.37-14.194-14.197C1.5 7.869 7.868 1.5 15.694 1.5c7.828 0 14.198 6.369 14.198 14.198 0 7.827-6.37 14.197-14.198 14.197z" fill="#5B5B58" fill-rule="evenodd"/></svg>

<?xml version="1.0" encoding="UTF-8" standalone="no"?>
<svg width="43px" height="43px" viewBox="0 0 43 43" version="1.1" xmlns="http://www.w3.org/2000/svg" xmlns:xlink="http://www.w3.org/1999/xlink">
    <!-- Generator: Sketch 3.7 (28169) - http://www.bohemiancoding.com/sketch -->
    <title>Zoom</title>
    <desc>Created with Sketch.</desc>
    <defs></defs>
    <g id="Headers-&amp;-Widgets" stroke="none" stroke-width="1" fill="none" fill-rule="evenodd">
        <g id="Header_Selectors" transform="translate(-1812.000000, -2488.000000)" fill="#5B5B58">
            <g id="Bitmap-Copy-+-Mask-Copy-+-Fill-139" transform="translate(1440.000000, 2091.000000)">
                <g id="Zoom" transform="translate(372.000000, 397.000000)">
                    <path d="M24.746,14.948 L16.444,14.948 L16.444,6.646 C16.444,6.232 16.108,5.896 15.694,5.896 C15.28,5.896 14.944,6.232 14.944,6.646 L14.944,14.948 L6.645,14.948 C6.23,14.948 5.895,15.284 5.895,15.698 C5.895,16.112 6.23,16.448 6.645,16.448 L14.944,16.448 L14.944,24.75 C14.944,25.164 15.28,25.5 15.694,25.5 C16.108,25.5 16.444,25.164 16.444,24.75 L16.444,16.448 L24.746,16.448 C25.16,16.448 25.496,16.112 25.496,15.698 C25.496,15.284 25.16,14.948 24.746,14.948 L24.746,14.948 Z M42.242,41.454 L27.165,26.377 C29.778,23.572 31.392,19.824 31.392,15.698 C31.392,7.042 24.35,0 15.694,0 C7.04,0 0,7.042 0,15.698 C0,24.352 7.04,31.395 15.694,31.395 C19.684,31.395 23.32,29.886 26.092,27.425 L41.182,42.515 C41.328,42.661 41.52,42.734 41.712,42.734 C41.904,42.734 42.096,42.661 42.242,42.515 C42.535,42.222 42.535,41.747 42.242,41.454 L42.242,41.454 Z M15.694,29.895 C7.868,29.895 1.5,23.525 1.5,15.698 C1.5,7.869 7.868,1.5 15.694,1.5 C23.522,1.5 29.892,7.869 29.892,15.698 C29.892,23.525 23.522,29.895 15.694,29.895 L15.694,29.895 Z" id="Fill-139"></path>
                </g>
            </g>
        </g>
    </g>
</svg>
